X: 125
T:Scotch Reel,A. JaW.125
T:aka. JaW.125
M:6/8
Q:120
C:"Clarinette Primo"
S:James Winder Ms, Lancashire, 1835-41
R:Jig
O:England
A:Wyresdale,Lancashire
H:1/8
Z:vmp.Chris Partington, Aug 2004
K:C
a|g2e ege|g2e e2a|g2e ege|c2e e2a|!
g2e ege|gab c'2b|agf edc|A2d d2:|!
|:g|c'2c' geg|g2e e2g|c'2c' geg|e2a a2g|!
c'2c' geg|geg c'2b|agf edc|A2d d2:|]
